status/symbolic/bluetooth-disabled-symbolic.svg

<svg xmlns="http://www.w3.org/2000/svg" viewBox="0 0 16 16">
  <path fill="#bebebe" d="M8.6 4.298l1.128 1.128-.96.96.846.846 1.812-1.812L8 2h-.6v3.018l1.2 1.2M4.046 3.2l-.846.846L7.154 8 3.8 11.354l.846.846L7.4 9.446V14H8l2.574-2.574 1.38 1.374.846-.846m-4.2-.252V9.446l1.128 1.128"/>
</svg>

<?xml version="1.0" encoding="UTF-8" standalone="no"?>
<svg
   xmlns:dc="http://purl.org/dc/elements/1.1/"
   xmlns:cc="http://creativecommons.org/ns#"
   xmlns:rdf="http://www.w3.org/1999/02/22-rdf-syntax-ns#"
   xmlns:svg="http://www.w3.org/2000/svg"
   xmlns="http://www.w3.org/2000/svg"
   xmlns:sodipodi="http://sodipodi.sourceforge.net/DTD/sodipodi-0.dtd"
   xmlns:inkscape="http://www.inkscape.org/namespaces/inkscape"
   version="1.1"
   width="16"
   height="16"
   viewBox="0 0 16 16"
   id="svg2"
   inkscape:version="0.91 r13725"
   sodipodi:docname="bluetooth-disabled-symbolic.svg">
  <metadata
     id="metadata10">
    <rdf:RDF>
      <cc:Work
         rdf:about="">
        <dc:format>image/svg+xml</dc:format>
        <dc:type
           rdf:resource="http://purl.org/dc/dcmitype/StillImage" />
        <dc:title></dc:title>
      </cc:Work>
    </rdf:RDF>
  </metadata>
  <defs
     id="defs8" />
  <sodipodi:namedview
     pagecolor="#ffffff"
     bordercolor="#666666"
     borderopacity="1"
     objecttolerance="10"
     gridtolerance="10"
     guidetolerance="10"
     inkscape:pageopacity="0"
     inkscape:pageshadow="2"
     inkscape:window-width="640"
     inkscape:window-height="480"
     id="namedview6"
     showgrid="false"
     inkscape:zoom="25.291667"
     inkscape:cx="-2.0757825"
     inkscape:cy="12"
     inkscape:current-layer="svg2" />
  <path
     d="M 8.6,4.298 9.728,5.426 8.768,6.386 9.614,7.232 11.426,5.42 8,2 7.4,2 l 0,3.018 1.2,1.2 M 4.046,3.2 3.2,4.046 7.154,8 3.8,11.354 4.646,12.2 7.4,9.446 7.4,14 8,14 10.574,11.426 11.954,12.8 12.8,11.954 m -4.2,-0.252 0,-2.256 1.128,1.128"
     id="path4"
     style="fill:#bebebe;fill-opacity:1"
     inkscape:connector-curvature="0" />
</svg>
